X: 22281
T: La Partida
R: waltz
M: 3/4
K: Aminor
xE=FE^DE|c3 EcE|c3 EcE|c2B ^AB2-|BE=F E^DE|
B3 EBE|B3 e=dc|B2=A ^GA2-|AE=F E^DE|A3 ^GAB|
A3 =G=FE|=F2=D ^CD2|xDE D=CB,|A,^G,A, B,CD|
E=FE DCB,|A,xC2E2|AEE EEE|edE edE|edE edE|
dcE dcE|dcE dcE|cBE cBE|cBE cBE|BAE BAE|
BAE BAE|A=GE AGE|AGE AGE|G2=F E=F2|x=FE DCB,|
A,^G,A, B,CD|E=FE DCB,|A,2C2E2|A3

